X:26
T:Maude Miller #1
M:4/4
L:1/8
K:D
gf | "C" edBA "D" GEDE | (3(GDG) BA    dGBG | "Em" eBdB "D" A2 GA | Beed              e2 :|
ge | "G" dega   bg ~g2 | "D" agef "C"  gfge | "G"  dega      bgag | "Am" eaag   "D" abge | 
     "G" dega   bg ~g2 | "D" agef "Em" gfga | "G" bgag  "C"  gfed | "Em" Be"C"ed "Em" e2 |]
